svg/tier.svg

<?xml version="1.0" encoding="UTF-8"?>
<svg width="20px" height="20px" viewBox="0 0 20 20" version="1.1" xmlns="http://www.w3.org/2000/svg" xmlns:xlink="http://www.w3.org/1999/xlink">
    <!-- Generator: Sketch 52.5 (67469) - http://www.bohemiancoding.com/sketch -->
    <title>task</title>
    <desc>Created with Sketch.</desc>
    <g id="Page-1" stroke="none" stroke-width="1" fill="none" fill-rule="evenodd">
        <g id="生产任务2.0" transform="translate(-341.000000, -268.000000)" fill="#324A59" fill-rule="nonzero">
            <g id="卡片1-+-卡片1-copy-+-卡片1-copy-2-Mask" transform="translate(320.000000, 100.000000)">
                <g id="卡片1" transform="translate(0.000000, 117.000000)">
                    <g id="Group-10" transform="translate(21.000000, 50.000000)">
                        <g id="任务制程">
                            <g id="物料管理" transform="translate(0.000000, 1.000000)">
                                <g id="task">
                                    <path d="M1.42594655,6.95828125 C1.36723628,6.92795282 1.3135522,6.88871798 1.26679287,6.84196429 C1.10136508,6.67619176 1.00842666,6.45134125 1.00842666,6.21688616 C1.00842666,5.98243107 1.10136508,5.75758056 1.26679287,5.59180804 C1.31159368,5.54685588 1.36279611,5.5088084 1.41873051,5.47890625 L9.47202673,1.17979911 C9.78514757,0.944915508 10.2150565,0.944180098 10.5289755,1.17799107 L18.5592205,5.39473214 C18.616703,5.42490927 18.6692838,5.46365387 18.715167,5.50964286 C19.0589694,5.85505509 19.0589694,6.41418598 18.715167,6.75959821 C18.6694387,6.8053955 18.6170653,6.84400132 18.5598218,6.87410714 L10.5079287,11.1129464 C10.1956308,11.3458388 9.76808119,11.346573 9.45498886,11.1147545 L1.42594655,6.95828125 Z M10.0028062,2.35321429 L2.77694878,6.21055804 L9.97995546,9.93973214 L17.2052116,6.13542411 L10.0028062,2.35321429 Z M18.6939198,13.1204687 C18.9665256,13.3083036 19.2004454,14.2609375 18.6861024,14.5291295 L10.3042762,18.9353125 C10.1649666,19.0182812 9.79033408,19.0184821 9.65342984,18.928683 L1.29966592,14.5978348 C0.848262806,14.2836384 1.0176392,13.4193973 1.22429844,13.1692857 L9.99238307,17.7094643 L18.6939198,13.1204687 Z M18.6939198,9.25669643 C18.9665256,9.44412946 19.2004454,10.3967634 18.6861024,10.6649554 L10.3042762,15.0711384 C10.1649666,15.1541071 9.79033408,15.154308 9.65342984,15.0645089 L1.29966592,10.7336607 C0.848262806,10.4194643 1.0176392,9.55522321 1.22429844,9.30511161 L9.99238307,13.8452902 L18.6939198,9.25669643 Z"></path>
                                </g>
                            </g>
                        </g>
                    </g>
                </g>
            </g>
        </g>
    </g>
</svg>

<svg width="20" height="20" xmlns="http://www.w3.org/2000/svg"><path d="M1.426 6.958a.641.641 0 0 1-.16-.116.885.885 0 0 1 0-1.25.642.642 0 0 1 .153-.113l8.053-4.3a.882.882 0 0 1 1.057-.001l8.03 4.217c.058.03.11.069.156.115a.886.886 0 0 1 0 1.25.642.642 0 0 1-.155.114l-8.052 4.239a.882.882 0 0 1-1.053.002l-8.03-4.157zm8.577-4.605L2.777 6.211 9.98 9.94l7.225-3.805-7.202-3.782zm8.69 10.767c.274.188.507 1.14-.007 1.41l-8.382 4.405c-.139.083-.514.083-.65-.006L1.3 14.598c-.452-.314-.282-1.179-.076-1.429l8.768 4.54 8.702-4.589zm0-3.863c.274.187.507 1.14-.007 1.408l-8.382 4.406c-.139.083-.514.083-.65-.006L1.3 10.734c-.452-.315-.282-1.179-.076-1.429l8.768 4.54 8.702-4.588z" fill="#324A59" fill-rule="nonzero"/></svg>
